public/cloud-icons/azure/management/cost-management-and-billing.svg

<?xml version="1.0" encoding="UTF-8" standalone="no"?>
<!-- Generated by Microsoft Visio, SVG Export Cost Management and Billing.svg Page-1 -->

<svg
   xmlns:dc="http://purl.org/dc/elements/1.1/"
   xmlns:cc="http://creativecommons.org/ns#"
   xmlns:rdf="http://www.w3.org/1999/02/22-rdf-syntax-ns#"
   xmlns:svg="http://www.w3.org/2000/svg"
   xmlns="http://www.w3.org/2000/svg"
   xmlns:sodipodi="http://sodipodi.sourceforge.net/DTD/sodipodi-0.dtd"
   xmlns:inkscape="http://www.inkscape.org/namespaces/inkscape"
   width="0.74807173in"
   height="0.78741461in"
   viewBox="0 0 53.861133 56.693993"
   xml:space="preserve"
   class="st7"
   version="1.1"
   id="svg50"
   sodipodi:docname="Cost Management and Billing.svg"
   style="font-size:12px;overflow:visible;color-interpolation-filters:sRGB;fill:none;fill-rule:evenodd;stroke-linecap:square;stroke-miterlimit:3"
   inkscape:version="0.92.5 (2060ec1f9f, 2020-04-08)"><metadata
   id="metadata54"><rdf:RDF><cc:Work
       rdf:about=""><dc:format>image/svg+xml</dc:format><dc:type
         rdf:resource="http://purl.org/dc/dcmitype/StillImage" /></cc:Work></rdf:RDF></metadata><sodipodi:namedview
   pagecolor="#ffffff"
   bordercolor="#666666"
   borderopacity="1"
   objecttolerance="10"
   gridtolerance="10"
   guidetolerance="10"
   inkscape:pageopacity="0"
   inkscape:pageshadow="2"
   inkscape:window-width="640"
   inkscape:window-height="480"
   id="namedview52"
   showgrid="false"
   inkscape:zoom="1.8365233"
   inkscape:cx="35.905405"
   inkscape:cy="18.900981"
   inkscape:window-x="0"
   inkscape:window-y="0"
   inkscape:window-maximized="0"
   inkscape:current-layer="svg50" />
	<style
   type="text/css"
   id="style2">
	<![CDATA[
		.st1 {fill:#ffcc00;stroke:none;stroke-width:4.91887}
		.st2 {fill:#ffca00}
		.st3 {stroke:none;stroke-width:4.91887}
		.st4 {fill:url(#grad7-10);stroke:none;stroke-width:4.91887}
		.st5 {fill:#ff6600;stroke:none;stroke-width:4.91887}
		.st6 {fill:#aa4400;stroke:none;stroke-width:4.91887}
		.st7 {fill:none;fill-rule:evenodd;font-size:12px;overflow:visible;stroke-linecap:square;stroke-miterlimit:3}
	]]>
	</style>

	<defs
   id="Patterns_And_Gradients">
		<radialGradient
   id="grad7-10"
   cx="-8.9955305e-07"
   cy="38.344842"
   r="66.502391"
   gradientTransform="scale(0.89070482,1.1227064)"
   fx="-8.9955305e-07"
   fy="38.344842"
   gradientUnits="userSpaceOnUse">
			<stop
   offset="0"
   stop-color="#76bc2d"
   stop-opacity="1"
   id="stop4" />
			<stop
   offset="0.41"
   stop-color="#74b92c"
   stop-opacity="1"
   id="stop6" />
			<stop
   offset="0.66"
   stop-color="#6fb12a"
   stop-opacity="1"
   id="stop8" />
			<stop
   offset="0.88"
   stop-color="#66a227"
   stop-opacity="1"
   id="stop10" />
			<stop
   offset="1"
   stop-color="#5e9624"
   stop-opacity="1"
   id="stop12" />
		</radialGradient>
	</defs>
	<g
   id="g48"
   transform="translate(-5.3859284,-5.6707785)">
		<title
   id="title16">Page-1</title>
		<g
   id="group13448-1"
   transform="translate(5.38583,-34.0157)">
			<title
   id="title18">Cost Management and Billing.13448</title>
			<g
   id="shape13449-2"
   transform="translate(21.1225,-18.2977)">
				<title
   id="title20">path17</title>
				<path
   d="m 8.95,90.51 a 3.17187,3.33292 0 0 1 -0.99,2.64 4.72608,4.96604 0 0 1 -2.82,1.23 v 2 H 3.74 V 94.31 A 7.4856,7.86568 0 0 1 0.26,93.38 v -2.7 a 5.70936,5.99925 -180 0 0 1.58,0.83 7.89794,8.29896 -180 0 0 1.9,0.47 V 88.51 A 7.67591,8.06566 0 0 1 0.86,86.75 3.64764,3.83285 0 0 1 1.05,81.58 4.47233,4.69941 0 0 1 3.74,80.31 v -1.83 h 1.37 v 1.8 a 7.00982,7.36574 0 0 1 2.92,0.67 v 2.66 A 7.23185,7.59905 -180 0 0 5.11,82.58 v 3.8 a 7.42216,7.79902 0 0 1 2.92,1.8 3.17187,3.33292 0 0 1 0.92,2.33 z M 3.74,85.75 v -3.1 a 1.26875,1.33317 -180 0 0 -1.14,1.4 c 0,0.7 0.42,1.26 1.27,1.7 z m 2.7,4.9 C 6.44,90.01 6,89.51 5.11,89.08 v 3 C 6,91.91 6.44,91.45 6.44,90.65 Z"
   class="st1"
   id="path22"
   inkscape:connector-curvature="0"
   style="fill:#ffcc00;stroke:none;stroke-width:4.91886997" />
			</g>
			<g
   id="shape13450-4"
   transform="translate(34.7002,-6.69916)">
				<title
   id="title25">path19</title>
				<path
   d="M 16.11,76.41 H 4.69 A 14.0514,14.7648 0 0 1 0,87.41 l 7.58,8.97 a 25.3749,26.6633 -180 0 0 8.53,-20 z"
   class="st2"
   id="path27"
   inkscape:connector-curvature="0"
   style="fill:#ffca00" />
				<path
   d="M 16.11,76.41 H 4.69 A 14.0514,14.7648 0 0 1 0,87.41 l 7.58,8.97 a 25.3749,26.6633 -180 0 0 8.53,-20"
   class="st3"
   id="path29"
   inkscape:connector-curvature="0"
   style="stroke:none;stroke-width:4.91886997" />
			</g>
			<g
   id="shape13451-7">
				<title
   id="title32">path21</title>
				<path
   d="m 25.37,84.51 a 14.05159,14.765 0 0 1 0,-29.53 V 43.05 A 25.3749,26.6633 -180 0 0 0,69.71 25.3749,26.6633 -180 0 0 25.37,96.38 25.3749,26.6633 -180 0 0 42.31,89.71 L 34.7,80.75 a 13.8928,14.5982 0 0 1 -9.33,3.76 z"
   class="st4"
   id="path34"
   inkscape:connector-curvature="0"
   style="fill:url(#grad7-10);stroke:none;stroke-width:4.91886997" />
			</g>
			<g
   id="shape13452-11"
   transform="translate(24.2013,-25.5635)">
				<title
   id="title37">path23</title>
				<path
   d="M 0,65.25 V 79.11 A 16.1448,16.9645 0 0 1 16.4,96.38 H 29.66 A 29.6252,31.1294 -180 0 0 0,65.25 Z"
   class="st5"
   id="path39"
   inkscape:connector-curvature="0"
   style="fill:#ff6600;stroke:none;stroke-width:4.91886997" />
			</g>
			<g
   id="shape13453-13"
   transform="translate(24.2013,-25.5635)">
				<title
   id="title42">path25</title>
				<path
   d="M 16.46,96.38 A 16.2717,17.0979 -180 0 0 0.41,79.11 H 0 l 1.05,2.07 a 14.2734,14.9981 0 0 1 13.41,14.16 z"
   class="st6"
   id="path44"
   inkscape:connector-curvature="0"
   style="fill:#aa4400;stroke:none;stroke-width:4.91886997" />
			</g>
		</g>
	</g>
</svg>

<svg xmlns="http://www.w3.org/2000/svg" xml:space="preserve" width="71.815" height="75.592" style="font-size:12px;overflow:visible;color-interpolation-filters:sRGB;fill-rule:evenodd;stroke-linecap:square;stroke-miterlimit:3" viewBox="0 0 53.861 56.694"><defs><radialGradient id="a" cx="0" cy="38.345" r="66.502" fx="0" fy="38.345" gradientTransform="scale(.8907 1.1227)" gradientUnits="userSpaceOnUse"><stop offset="0" stop-color="#76bc2d"/><stop offset=".41" stop-color="#74b92c"/><stop offset=".66" stop-color="#6fb12a"/><stop offset=".88" stop-color="#66a227"/><stop offset="1" stop-color="#5e9624"/></radialGradient></defs><g transform="translate(-5.386 -5.67)"><title>Page-1</title><g transform="translate(5.386 -34.016)"><title>Cost Management and Billing.13448</title><g transform="translate(21.122 -18.298)"><title>path17</title><path d="M8.95 90.51a3.172 3.333 0 0 1-.99 2.64 4.726 4.966 0 0 1-2.82 1.23v2h-1.4v-2.07a7.486 7.866 0 0 1-3.48-.93v-2.7a5.71 6-180 0 0 1.58.83 7.898 8.299-180 0 0 1.9.47v-3.47a7.676 8.066 0 0 1-2.88-1.76 3.648 3.833 0 0 1 .19-5.17 4.472 4.7 0 0 1 2.69-1.27v-1.83h1.37v1.8a7.01 7.366 0 0 1 2.92.67v2.66a7.232 7.6-180 0 0-2.92-1.03v3.8a7.422 7.799 0 0 1 2.92 1.8 3.172 3.333 0 0 1 .92 2.33m-5.21-4.76v-3.1a1.269 1.333-180 0 0-1.14 1.4c0 .7.42 1.26 1.27 1.7zm2.7 4.9c0-.64-.44-1.14-1.33-1.57v3c.89-.17 1.33-.63 1.33-1.43" style="fill:#fc0;stroke:none;stroke-width:4.91886997"/></g><g transform="translate(34.7 -6.7)"><title>path19</title><path d="M16.11 76.41H4.69a14.051 14.765 0 0 1-4.69 11l7.58 8.97a25.375 26.663-180 0 0 8.53-20z" style="fill:#ffca00"/><path d="M16.11 76.41H4.69a14.051 14.765 0 0 1-4.69 11l7.58 8.97a25.375 26.663-180 0 0 8.53-20" style="stroke:none;stroke-width:4.91886997"/></g><title>path21</title><path d="M25.37 84.51a14.052 14.765 0 0 1 0-29.53V43.05A25.375 26.663-180 0 0 0 69.71a25.375 26.663-180 0 0 25.37 26.67 25.375 26.663-180 0 0 16.94-6.67l-7.61-8.96a13.893 14.598 0 0 1-9.33 3.76" style="fill:url(#a);stroke:none;stroke-width:4.91886997"/><g transform="translate(24.201 -25.564)"><title>path23</title><path d="M0 65.25v13.86a16.145 16.965 0 0 1 16.4 17.27h13.26A29.625 31.13-180 0 0 0 65.25" style="fill:#f60;stroke:none;stroke-width:4.91886997"/></g><g transform="translate(24.201 -25.564)"><title>path25</title><path d="M16.46 96.38A16.272 17.098-180 0 0 .41 79.11H0l1.05 2.07a14.273 14.998 0 0 1 13.41 14.16z" style="fill:#a40;stroke:none;stroke-width:4.91886997"/></g></g></g></svg>
